X:1
T:Leaving St. Kilda  "CYMRU"
M:C
L:1/8
Q:80
C:P/M W. Ross
S:Slow March
K:HP
|: {gBd}B{G}A{g}B/2{Gdc}d3/2{ag}a3/2f/2{g}e/2f3/2 | \
{gef}e3/2d/2{gBd}B/2{G}A3/2{g}{f}{e}f3/2d/2{gef}e3/2d/2 | \
{gBd}B{G}A{g}B/2{Gdc}d3/2{ag}a3/2f/2{g}e/2f3/2 |
{g}A{GdG}B/2{g}f3/2d/2{gef}e3/2d/2{gdc}d2 :| | \
{gfg}fe/2{g}f/2a3/2{e}{A}e3/2d/2{g}B/2{Gdc}d3/2 | \
{g}{f}{e}f3/2d/2{g}f/2a3/2g/2f3/2e/4{g}d3/4{gef}e |
{g}{f}{e}f3/2e/2{g}f/2a{Bd}B3/2{G}A/2{g}B/2{Gdc}d3/2 | \
{g}A{GdG}B/2{g}f3/2d/2{gef}e3/2d/2{gdc}d2 | | \
{gfg}fe/2{g}f/2a3/2{e}{A}e3/2d/2{g}B/2{Gdc}d3/2 |
{g}{f}{e}f3/2d/2{g}f/2a3/2g/2f3/2e/4{g}d3/4{gef}e | \
{gBd}B{G}A{g}B/2{Gdc}d3/2{ag}a3/2f/2{g}e/2f3/2 | \
{g}A{GdG}B/2{g}f3/2d/2{gef}e3/2d/2{gdc}d2|]
